Numix/48/mimetypes/text-x-gettext-translation-template.svg

<?xml version="1.0" encoding="UTF-8" standalone="no"?>
<svg
   xmlns:dc="http://purl.org/dc/elements/1.1/"
   xmlns:cc="http://creativecommons.org/ns#"
   xmlns:rdf="http://www.w3.org/1999/02/22-rdf-syntax-ns#"
   xmlns:svg="http://www.w3.org/2000/svg"
   xmlns="http://www.w3.org/2000/svg"
   xmlns:sodipodi="http://sodipodi.sourceforge.net/DTD/sodipodi-0.dtd"
   xmlns:inkscape="http://www.inkscape.org/namespaces/inkscape"
   width="48"
   viewBox="0 0 48 48"
   height="48"
   id="svg2"
   version="1.1"
   inkscape:version="0.91 r13725"
   sodipodi:docname="text-x-gettext-translation-template.svg">
  <metadata
     id="metadata30">
    <rdf:RDF>
      <cc:Work
         rdf:about="">
        <dc:format>image/svg+xml</dc:format>
        <dc:type
           rdf:resource="http://purl.org/dc/dcmitype/StillImage" />
        <dc:title />
      </cc:Work>
    </rdf:RDF>
  </metadata>
  <defs
     id="defs28" />
  <sodipodi:namedview
     pagecolor="#ffffff"
     bordercolor="#666666"
     borderopacity="1"
     objecttolerance="10"
     gridtolerance="10"
     guidetolerance="10"
     inkscape:pageopacity="0"
     inkscape:pageshadow="2"
     inkscape:window-width="1366"
     inkscape:window-height="704"
     id="namedview26"
     showgrid="false"
     inkscape:zoom="11.313708"
     inkscape:cx="25.911176"
     inkscape:cy="6.2405942"
     inkscape:window-x="0"
     inkscape:window-y="27"
     inkscape:window-maximized="1"
     inkscape:current-layer="svg2">
    <inkscape:grid
       type="xygrid"
       id="grid3030" />
  </sodipodi:namedview>
  <path
     style="fill:#dda06a;fill-opacity:1"
     d="M 8 1 C 6.9714285 1 6 1.9714285 6 3 L 6 14 L 6 45 C 6 45.971429 7.0285714 47 8 47 L 40 47 C 40.971429 47 42 45.971429 42 45 L 42 14 L 42 3 C 42 1.9714285 41.028571 1 40 1 L 29 1 L 19 1 L 8 1 z "
     id="path4" />
  <path
     inkscape:connector-curvature="0"
     style="fill:#000000;fill-opacity:0.19607843"
     d="m 6,35 0,10 c 0,0.971429 1.028571,2 2,2 l 32,0 c 0.971429,0 2,-1.028571 2,-2 l 0,-10 z"
     id="path20" />
  <path
     style="opacity:1;fill:#ffffff;fill-opacity:1;stroke:none;stroke-width:0.5;stroke-linecap:round;stroke-linejoin:round;stroke-miterlimit:4;stroke-dasharray:none;stroke-opacity:0.1375"
     d="m 18,11 0,19 2,0 0,-8 12,0 -5.5,-4.5 5.499999,-4.500001 L 20,12.999999 20,11 Z"
     id="rect4148"
     inkscape:connector-curvature="0"
     sodipodi:nodetypes="cccccccccc" />
  <path
     style="line-height:125%;letter-spacing:0;word-spacing:0;fill:#ffffff"
     d="M 16.392578 36.900391 C 15.592571 36.92272 14.798667 36.940607 14 37.09375 L 14 45 L 15.730469 45 L 15.730469 42.294922 L 16.349609 42.294922 C 17.475574 42.294926 18.345172 42.084795 18.955078 41.662109 C 19.574354 41.230803 19.882807 40.535637 19.882812 39.578125 C 19.882806 38.629251 19.578644 37.947268 18.96875 37.533203 C 18.358846 37.110528 17.499777 36.900399 16.392578 36.900391 z M 24.039062 36.900391 C 23.006793 36.900399 22.199174 37.247501 21.619141 37.941406 C 21.039107 38.626861 20.749999 39.646031 20.75 41 C 20.749999 42.353976 21.029471 43.378356 21.589844 44.072266 C 22.160045 44.757715 22.981144 45.099609 24.052734 45.099609 C 25.094826 45.099609 25.902447 44.757715 26.472656 44.072266 C 27.042851 43.378356 27.326166 42.353976 27.326172 41 C 27.326166 39.646031 27.046693 38.626861 26.486328 37.941406 C 25.925949 37.247501 25.110646 36.900399 24.039062 36.900391 z M 27.865234 37 L 27.865234 38.318359 L 30.160156 38.318359 L 30.160156 45 L 31.90625 45 L 31.90625 38.318359 L 34.199219 38.318359 L 34.199219 37 L 27.865234 37 z M 24.039062 38.257812 C 24.353652 38.25782 24.655004 38.330755 24.841797 38.474609 C 25.028584 38.618474 25.171211 38.813192 25.269531 39.058594 C 25.377654 39.304006 25.447063 39.595106 25.476562 39.933594 C 25.515893 40.26363 25.535152 40.619199 25.535156 41 C 25.535136 41.380809 25.515883 41.736378 25.476562 42.066406 C 25.447063 42.39644 25.377668 42.687538 25.269531 42.941406 C 25.171214 43.186816 25.024744 43.381533 24.828125 43.525391 C 24.64133 43.669251 24.343822 43.742188 24.039062 43.742188 C 23.724463 43.742189 23.421163 43.669252 23.234375 43.525391 C 23.047581 43.381533 22.901107 43.186816 22.792969 42.941406 C 22.694655 42.696001 22.625258 42.408159 22.585938 42.078125 C 22.556448 41.739635 22.541013 41.380809 22.541016 41 C 22.541016 40.619199 22.556438 40.26363 22.585938 39.933594 C 22.625259 39.603568 22.694659 39.315723 22.792969 39.070312 C 22.901108 38.816448 23.047581 38.618474 23.234375 38.474609 C 23.421163 38.330768 23.724463 38.257819 24.039062 38.257812 z M 16.589844 38.285156 C 17.049611 38.285163 17.415387 38.383634 17.6875 38.582031 C 17.968988 38.771812 18.109371 39.100598 18.109375 39.566406 C 18.109371 40.058105 17.968988 40.406258 17.6875 40.613281 C 17.406004 40.811686 16.989145 40.912112 16.435547 40.912109 L 15.730469 40.912109 L 15.730469 38.324219 C 16.032092 38.309109 16.287309 38.282256 16.589844 38.285156 z "
     id="path24" />
</svg>

<svg xmlns="http://www.w3.org/2000/svg" viewBox="0 0 48 48">
 <path d="m 8 1 c -1.029 0 -2 0.971 -2 2 l 0 11 l 0 31 c 0 0.971 1.029 2 2 2 l 32 0 c 0.971 0 2 -1.029 2 -2 l 0 -31 l 0 -11 c 0 -1.029 -0.971 -2 -2 -2 l -11 0 l -10 0 l -11 0 z" style="fill:#dda06a;fill-opacity:1"/>
 <path d="m 6 35 0 10 c 0 0.971 1.029 2 2 2 l 32 0 c 0.971 0 2 -1.029 2 -2 l 0 -10 z" style="fill:#000;fill-opacity:0.196"/>
 <path d="m 18 11 0 19 2 0 0 -8 12 0 -5.5 -4.5 5.5 -4.5 l -12 0 0 -2" style="fill:#fff;opacity:1;fill-opacity:1;stroke:none"/>
 <path d="m 16.393 36.9 c -0.8 0.022 -1.594 0.04 -2.393 0.193 l 0 7.906 l 1.73 0 l 0 -2.705 l 0.619 0 c 1.126 0 1.996 -0.21 2.605 -0.633 c 0.619 -0.431 0.928 -1.126 0.928 -2.084 c 0 -0.949 -0.304 -1.631 -0.914 -2.045 c -0.61 -0.423 -1.469 -0.633 -2.576 -0.633 z m 7.646 0 c -1.032 0 -1.84 0.347 -2.42 1.041 c -0.58 0.685 -0.869 1.705 -0.869 3.059 c 0 1.354 0.279 2.378 0.84 3.072 c 0.57 0.685 1.391 1.027 2.463 1.027 c 1.042 0 1.85 -0.342 2.42 -1.027 c 0.57 -0.694 0.854 -1.718 0.854 -3.072 c 0 -1.354 -0.279 -2.373 -0.84 -3.059 c -0.56 -0.694 -1.376 -1.041 -2.447 -1.041 z m 3.826 0.1 l 0 1.318 l 2.295 0 l 0 6.682 l 1.746 0 l 0 -6.682 l 2.293 0 l 0 -1.318 l -6.334 0 z m -3.826 1.258 c 0.315 0 0.616 0.073 0.803 0.217 c 0.187 0.144 0.329 0.339 0.428 0.584 c 0.108 0.245 0.178 0.537 0.207 0.875 c 0.039 0.33 0.059 0.686 0.059 1.066 c 0 0.381 -0.019 0.736 -0.059 1.066 c -0.029 0.33 -0.099 0.621 -0.207 0.875 c -0.098 0.245 -0.245 0.44 -0.441 0.584 c -0.187 0.144 -0.484 0.217 -0.789 0.217 c -0.315 0 -0.618 -0.073 -0.805 -0.217 c -0.187 -0.144 -0.333 -0.339 -0.441 -0.584 c -0.098 -0.245 -0.168 -0.533 -0.207 -0.863 c -0.029 -0.338 -0.045 -0.697 -0.045 -1.078 c 0 -0.381 0.015 -0.736 0.045 -1.066 c 0.039 -0.33 0.109 -0.618 0.207 -0.863 c 0.108 -0.254 0.255 -0.452 0.441 -0.596 c 0.187 -0.144 0.49 -0.217 0.805 -0.217 z m -7.449 0.027 c 0.46 0 0.826 0.098 1.098 0.297 c 0.281 0.19 0.422 0.519 0.422 0.984 c 0 0.492 -0.14 0.84 -0.422 1.047 c -0.281 0.198 -0.698 0.299 -1.252 0.299 l -0.705 0 l 0 -2.588 c 0.302 -0.015 0.557 -0.042 0.859 -0.039 z" style="fill:#fff"/>
</svg>
